src/lib/packages/icons/src/assets/line/wifi.svg

<svg width="24" height="24" viewBox="0 0 24 24" fill="none" xmlns="http://www.w3.org/2000/svg">
<path d="M15.453 15.421C15.783 15.671 15.848 16.142 15.598 16.472C15.451 16.666 15.2261 16.769 14.9991 16.769C14.8421 16.769 14.6822 16.719 14.5472 16.616C13.0862 15.507 10.914 15.507 9.45296 16.616C9.12496 16.867 8.65218 16.802 8.40218 16.472C8.15218 16.142 8.2162 15.672 8.5472 15.421C10.5332 13.913 13.467 13.913 15.453 15.421ZM12.0001 10.26C9.61608 10.26 7.31206 11.113 5.51106 12.661C5.19806 12.931 5.16096 13.404 5.43196 13.719C5.70296 14.034 6.17607 14.068 6.49007 13.799C8.01807 12.485 9.97505 11.761 12.0011 11.761C14.0271 11.761 15.983 12.485 17.512 13.799C17.654 13.921 17.8271 13.98 18.0011 13.98C18.2121 13.98 18.4212 13.891 18.5692 13.719C18.8402 13.405 18.8031 12.931 18.4901 12.661C16.6881 11.113 14.3841 10.26 12.0001 10.26ZM21.5001 9.884C18.8841 7.541 15.5111 6.25 12.0001 6.25C8.48908 6.25 5.11608 7.541 2.50008 9.884C2.19108 10.16 2.165 10.634 2.441 10.943C2.717 11.252 3.19208 11.277 3.50008 11.001C5.84108 8.90501 8.85908 7.75 12.0001 7.75C15.1411 7.75 18.1591 8.90501 20.5001 11.001C20.6431 11.129 20.8211 11.192 21.0001 11.192C21.2061 11.192 21.4102 11.108 21.5592 10.942C21.8352 10.634 21.8091 10.16 21.5001 9.884ZM12.0001 18C11.4481 18 11.0001 18.448 11.0001 19C11.0001 19.552 11.4481 20 12.0001 20C12.5521 20 13.0001 19.552 13.0001 19C13.0001 18.448 12.5521 18 12.0001 18Z" fill="currentColor"/>
</svg>

<svg xmlns="http://www.w3.org/2000/svg" width="24" height="24" fill="none"><path fill="currentColor" d="M15.453 15.421a.75.75 0 0 1-.906 1.195c-1.46-1.109-3.633-1.109-5.094 0a.75.75 0 1 1-.906-1.195c1.986-1.508 4.92-1.508 6.906 0ZM12 10.26a9.957 9.957 0 0 0-6.489 2.401.75.75 0 0 0 .98 1.138A8.453 8.453 0 0 1 12 11.761c2.026 0 3.982.724 5.511 2.038a.748.748 0 0 0 1.057-.08.75.75 0 0 0-.079-1.058A9.962 9.962 0 0 0 12 10.26Zm9.5-.376A14.22 14.22 0 0 0 12 6.25a14.22 14.22 0 0 0-9.5 3.634.75.75 0 1 0 1 1.117A12.726 12.726 0 0 1 12 7.75c3.141 0 6.16 1.155 8.5 3.251a.748.748 0 1 0 1-1.117ZM12 18a1 1 0 1 0 0 2 1 1 0 0 0 0-2Z"/></svg>
